X:1
T:The Town of Ballybay
M:C
L:1/8
Q:80
C:Arr. by T. Tully
S:Reel
K:HP
|: {gef}ec{A}ABc{e}c{G}cd | \
{gef}ec{G}AB{g}cB{gBeBG}B2 | \
{gef}ec{G}ABc{e}c{G}cd |
e{g}e{A}ed{g}cA{gAGAG}A2 :: \
a{g}a{g}ae{g}fe{gcd}ce | \
a{g}a{g}ae{gfg}f2ef |
a{g}a{g}ae{g}fe{g}cd | \
e{g}e{A}ed{g}cA{gAGAG}A2 :|
